X:955
T:The garden of daisies
R:Set Dance
O:Ireland
B:O'Neill's 1797
S:O'Neill's 1797
Z:Transcription:Robert Thorpe, minor arr., chords:Mike Long
M:C|
L:1/8
K:D
fg|\
"D"a2b2 "G"gbag|"D"f2a2 "A"gfef|"D"(~dc)de fdec|"D"dedc "A"AGFG|\
"D"A3B "G"ABAG|"D"FEFG "A"ABcA|
"D"(~dc)de "A"fdec|"D"d2dd d2:|\
(3(ABc)|\
"D"d2e2 fefg|a3f d2ga|"G"b3g "D"a3f|"A"g3e c2(de)|\
"D"f3e f2a2|
"G"g2f2 "A"efec|"D"dcde "A"fdec|"D"dedc "A"A2(fg)|\
"D"a2b2 "G"gbag|"D"f2a2 "A"gfef|"D"(~dc)de "A"fdec|
"D"dedc "A"AGFG|\
"D"A3B "G"ABAG|"D"FEFG "A"ABcA|"D"(~dc)de "A"fdec|"D"d2dd d2|]\
(3(ABc)|\
"D"d2e2 f2g2|
a2aa a2(fg)|"D"a2b2 "A"c'2a2|"G"g2gg g2(fg)|\
"D"a2b2 a2g2|"A"e2a2 "G"g2e2|\
"D"(~dc)de "A"fdec|"D"dedc "A"A2(fg)|\
"D"a2b2 a2g2|
"A"e2a2 "G"g2e2|"D"(~dc)de "A"fdec|\
"D"dedc "A"AGFG|\
"D"A2B2 "G"ABAG|"D"F2FG "A"ABcA|"D"dcde "A"fdec|"D"d2dd d2|]
